X:1
T:No Shelter but in Christ
T:No Shelter but in Christ
T:John Robson Sweney
T:James L. Smith, 1887
T:Public Domain Courtesy of the Cyber Hymnal™
T:Public Domain Courtesy of the Cyber Hymnal™
C:John Robson Sweney
Z:Public Domain
Z:Courtesy of the Cyber Hymnal™
%%score ( 1 2 ) ( 3 4 )
L:1/8
Q:1/4=103
M:9/8
K:C
V:1 treble 
V:2 treble 
V:3 bass 
V:4 bass 
V:1
 [EG] [^D^F]2 [EG] | [Ec]3- [Ec]2 [CE] [EG]2 [^D^F] | [DF]6 [DF]3 | %3
w: 1.~There is no|shel- * ter for the|soul, On|
w: 2.~There is no|shel- * ter from the|night, So|
w: 3.~There is no|shel- * ter from the|storm That|
w: 4.~There is no|ref- * uge but in|Christ, Tho’|
 [FB]3- [FB]2 [FA] [DF]2 [^D^F] | [EG]3- [EG]2 [EG] [^D^F]2 [EG] | [Ge]3- [Ge]2 [Fd] [Ec]2 [GB] | %6
w: earth, * in Heav’n a-|bove, * No shel- ter|but * in Christ the|
w: cold * and dark and|drear, * But in the|Lord, * our right- eous-|
w: frowns * a- bove our|head * But in the|Lamb * of Cal- va-|
w: we * the world should|gain, * The soul with-|out * His grace is|
 [FA]6 [^DA]3 | [EG]3- [EG]2 [Gc] [Fc]2 [FB] | [Ec]6 ||"^Refrain" [Ec]3 | %10
w: Lord, No|ref- * uge but His|love.||
w: ness, Whose|kind- * ly aid is|near.|Then|
w: ry Whose|blood * for all was|shed.||
w: lost, All|oth- * er hope is|vain.||
 d3 [Fd][Fc][FB] [FB][FA][FG] | [EG]2 [Ec] [EG]3 E3 | A4 DE"^riten." F2 [CF] | %13
w: |||
w: fly to the ark where the wea-|* ry dove Came|back to the place of|
w: |||
w: |||
 [B,E]3- [B,E]2"^a tempo" E EA[EB] | c3 [Ec][Ac][Ac] [Ac][GB][FA] | [EG]6 [Ec]2 [Fd] | %16
w: |||
w: rest; * O fly to the|arms, to the shel- ter- ing arms|* Of the|
w: |||
w: |||
 [Ge]4 [Ec][CE] (G[^FA])[=FB] | [Ec]3- [Ec]2 |] %18
w: ||
w: Sav- ior that loves * thee|best. *|
w: ||
w: ||
V:2
 x4 | x9 | x9 | x9 | x9 | x9 | x9 | x9 | x6 || x3 | F2 F x6 | x6 E3 | A4 F2 x3 | x9 | E E E x6 | %15
 x9 | x6 G x2 | x5 |] %18
V:3
 [C,C] [C,C]2 [C,C] | [C,G,]3- [C,G,]2 [C,G,] [C,C]2 [C,C] | [G,B,]6 [G,B,]3 | %3
w: |||
 [G,D]3- [G,D]2 [G,C] [G,B,]2 [G,B,] | [C,C]3- [C,C]2 [C,C] [C,C]2 [C,C] | %5
w: ||
 [C,C]3- [C,C]2 [C,G,] [C,G,]2 [E,C] | [F,C]6 [^F,C]3 | [G,C]3- [G,C]2 [G,E] [G,D]2 [G,,G,] | %8
w: |||
 [C,G,]6 || [C,G,]3 | [G,B,]2 [G,B,] [G,B,][G,E][G,D] [G,D][G,C][G,B,] | [C,C]2 [C,G,] [C,C]3 E,3 | %12
w: ||* O fly, * * * * *|* * * O|
 A,4 D,E, F,2 [^D,A,] | [E,^G,]3- [E,G,]2 z3 [E,G,] | A,A,A, A,3 [F,C]2 [F,C] | %15
w: fly to the arms, *|* * To|the shel- ter- ing arms *|
 [C,C][C,C][C,C] [C,C]3 [C,G,]2 [C,G,] | [C,C]4 [C,G,][C,G,] (B,C)[G,,G,D] | [C,C]3- [C,C]2 |] %18
w: |||
V:4
 x4 | x9 | x9 | x9 | x9 | x9 | x9 | x9 | x6 || x3 | x9 | x6 E,3 | A,4 ^D,E, F,2 x | x9 | %14
 A,A,A, A,3 x3 | x9 | x6 G,2 x | x5 |] %18

